X:1
T:Saudação
T:Saudação
T:· VALSA ·
T:Vargas J.or
T:1910
T:1910
T:1910
T:1910
C:Vargas J.or
Z:1910
%%score { ( 1 4 ) | ( 2 3 ) }
L:1/8
Q:1/4=130
M:3/4
K:G
V:1 treble nm="Piano" snm="Pno."
V:4 treble 
V:2 bass 
V:3 bass 
V:1
"^Maestoso"!ff! [Bdgb]4 (3bgb | [dfad']6 | [egc']2 [dgb]2 [ege']2 | %3
 !arpeggio![dgd']2- [dgd'](bgd) | (Bd) (GB) (DB) |!p! G2 z2 z2 | z2 z2 D2 || %7
[K:G][M:3/4][K:treble]"^Tempo de Valsa" (B3 dAd) | (GB"^rit." .e2) .e2 |"^a tempo" (e4 F2-) | %10
 F z z2 z2 | (c3 dBd) | (Ac"^rit." .g2) .f2 |"^a tempo" (e6 | d) z z2 D2 | (B3 dBd) | %16
 B2!<(! ^c2 d2 | f3!<)! d A2 | z (FGAGF) |!>(! (B3 G!>)! E2) | z (efgfe) |!>(! (a3 f d2)!>)! | %22
 !>![dd']2 !>![^c^c']2 !>![=c=c']2 | ([Bb]3 dAd) |!<(! (GB e2) [ee']2!<)! | %25
!>(! (([ee']4 [Ff])) z!>)! | z2 z2 D2 | (c3 dBd) | (Ac g2) [ff']2 |!>(! (([ee']6!>)! | %30
 [dd'])) z z2 D2 | (B3 dBd) |!<(! GB d2 [Gg]2!<)! |!>(! (([Aa]4!>)! [Gg])) z | z (ABcBA) | %35
!>(! e3 _e d2!>)! |!p! z (CDFBA) | [B,G]6- | [B,G] z z2"^risoluto" df ||!f! [dfa]4 g2 | f2 e2 d2 | %41
 ((!>![Ac]6 | [GB]2)) z (BdB) | g4 d2 | (gdgabd') | !>![fa]6- | [fa] z z2!p! (df) | a4 g2 | %48
 f2 e2 d2 |!>(! (c6!>)! | _B2) z2 (Bd | g4 d2) | (d2 =f3 _e | e4) (!>!c_B | [FA]2) z2!f! df | %55
 [dfa]4 g2 | f2 e2 d2 | (([Ac]6 | [GB]2)) z (BdB) | g4 d2 | (gdgabd') | !>![fa-]6 | [fa] z z2 (df | %63
 a4) g2 | f2 e2 d2 | (!>!c6 | (B2){/d} c2 B2) | (g3 fed) | ^cb agBc | %69
 d!f! z"^Vigoroso" [dd'][dd'] [dd']2 | [dfad']2- [dfad'] z !>![Dd]2 ||!f!"^a tempo" (B3 dAd) | %72
!<(! (GB e2) [ee']2!<)! |!>(! (([ee']4 [Ff])) z!>)! | z2 z2 D2 | (c3 dBd) | (Ac g2) [ff']2 | %77
 (([ee']6 | [dd'])) z z2 D2 | (B3 dBd) |!<(! GB d2 [Gg]2!<)! |!>(! (([Aa]4!>)! [Gg])) z | %82
 z (ABcBA) |!>(! (e3 _e d2)!>)! | z (CDFBA) | [B,G]6- | [B,G] z z2 Gc |:[K:C] B2 f3 ^c | d2 a3 B | %89
 (a6 | g2) [ce]2 ed | (^c2 e2 c2 | A2) (a3 _b) |!>(! (([_B_b]6!>)! | [Aa]2)) z2 Af | %95
!f! !>!^c4"^molto expressivo"!<(! d2 | (3(=cdc) B2 A2!<)! |!>(! B2 (GE)!>)! B2- | (B2 [CE]2 B2 | %99
 A2) (FD) !>!G2- | (GFDB,G,E) |1 C2- [CE]4- | [CE] z z2 Gc :|2 C2- [CE]4- | [CE] z z2 D2 || %105
[K:G]!f! (B3 dAd) | (GB e2) [ee']2 | (([ee']4 [Ff])) z | z2 z2 D2 | (c3 dBd) | (Ac g2) [ff']2 | %111
 (([ee']6 | [dd'])) z z2 D2 | (B3 dBd) |!<(! (GB d2) [Gg]2!<)! |!>(! (([Aa]4!>)! [Gg])) z | %116
 z (AB!f!cBA) | (e3 _e d2) | z cdfba |"^molto mod." (!///-![dg]3"^to" B3) | [Adf]2 z2 (3fac' | %121
 (!///-![c'e']3 g3) | (!///-![bd'g']3 g3) | [gbd'g']2 z4 |] %124
V:2
 [G,,G,]2 B,2 G,2 | [F,,F,]2 A,2 F,2 | [E,,E,]2 [D,,D,]2 [C,,C,]2 | [B,,,B,,]2 [B,,D,G,]2 z2 | %4
 z2 z2 [D,F,C]2 | [G,,G,]2 [D,G,B,]2 [D,G,B,]2 | G,,2 [D,G,B,]2 [D,G,B,]2 || %7
[K:G][M:3/4][K:bass] G,,2 [D,G,B,]2 [D,G,B,]2 | G,,2 [D,G,]2 z2 | A,,2 [D,F,C]2 [D,F,C]2 | %10
 D,2 [F,C]2 z2 | [D,,D,]2 [D,F,C]2 [D,F,C]2 | [D,,D,]2 [D,F,C]2 [D,F,C]2 | G,,2 ([G,B,]2 E2 | %14
 D2 B,2 G,2) | G,,2 [D,G,B,]2 [D,G,B,]2 | G,,2 [D,G,B,]2 [D,G,B,]2 | [A,,A,]2 [F,A,D]2 [F,A,D]2 | %18
 A,,2 z2 z2 | [A,,A,]2 [G,B,^C]2 [G,B,C]2 | A,,2 z2 z2 | D,2 [F,A,D]2 [F,A,D]2 | %22
 !>![D,,D,]2 !>![E,,E,]2 !>![F,,F,]2 | [G,,G,]2 [E,G,B,]2 [E,G,B,]2 | B,,2 [D,G,]2 z2 | %25
 A,,2 [D,F,C]2 [D,F,C]2 | [D,,D,]2 [D,F,C]2 [D,F,C]2 | [D,,D,]2 [D,F,C]2 [D,F,C]2 | %28
 [D,,D,]2"^rit." [D,F,C]2 [D,F,C]2 |"^a tempo" G,,2 ([G,B,]2 E2 | D2 B,2 G,2) | %31
 G,,2 [B,D]2 [B,D]2 | z2 [G,B,]2 [G,B,]2 | z2 [G,C]2 [G,C]2 | z2"^dim" [G,C]2 [G,C]2 | %35
 D,2 [G,B,]2 [G,B,]2 | D,,2 z2 z2 | (G,2 D,2 B,,2 | G,,2) z2 z2 || [D,,D,]2 [D,F,C]2 [D,F,C]2 | %40
 D,2 [A,DF]2 [A,DF]2 | [G,,G,]2 [B,D]2 [B,D]2 | G,2 [B,D]2 [B,D]2 | [B,,B,]2 [B,DG]2 [B,DG]2 | %44
 !>![B,,B,]4 !>![G,,G,]2 | !>![D,,D,]2 F,2 A,2 | (D2 D,) z z2 | [D,,D,]2 [D,F,C]2 [D,F,C]2 | %48
 D,2 [A,DF]2 [A,DF]2 | G,2 [_B,DG]2 [B,DG]2 | G,2 [_B,D]2 (B,D |"^dolce" G4 D2) | (D2 _B,2 G,2 | %53
 D,2) D2 (!>!_E2 | D2 D,) z z2 | [D,,D,]2 [D,F,C]2 [D,F,C]2 | D,2 [A,DF]2 [A,DF]2 | %57
 [G,,G,]2 [B,D]2 [B,D]2 | G,2 [B,D]2 [B,D]2 | [B,,B,]2 [B,DG]2 [B,DG]2 | !>![B,,B,]4 !>![G,,G,]2 | %61
 (!>![D,,D,]2 F,2 A,2 | D2 D,) z z2 | [D,,D,]2 [D,F,C]2 [D,F,C]2 | D,2 [A,DF]2 [A,DF]2 | %65
 z2 [G,C]2 [G,C]2 | ^D,2 [F,B,]2 [F,B,]2 | E,2 [G,B,]2 z2 | [A,,A,]2 [A,^CF]4 | %69
 [DF] z"^allarg" [F,F]2 [E,E]2 | [B,,B,][D,D] [C,C]2 !>![G,,A,]2 || [G,,G,]2 [D,G,B,]2 [D,G,B,]2 | %72
 B,,2 [D,G,]2 z2 | A,,2 [D,F,C]2 [D,F,C]2 | [D,,D,]2 [D,F,C]2 [D,F,C]2 | %75
 [D,,D,]2 [D,F,C]2 [D,F,C]2 | [D,,D,]2 [D,F,C]2 [D,F,C]2 | G,,2 ([G,B,]2 E2 | D2 B,2 G,2) | %79
"^cresc" G,,2 [B,D]2 [B,D]2 | z2 [G,B,]2 [G,B,]2 | z2 [G,C]2 [G,C]2 | z2"^dim" [G,C]2 [G,C]2 | %83
 x2 [G,B,]2 [G,B,]2 | D,,2 z2 z2 | (G,2 D,2 B,,2) | G,,2 z2 z2 |:[K:C] G,,2 [B,D]2 [B,D]2 | %88
 G,2 [B,F]2 [B,F]2 | [C,C]2 z2 z2 | [C,,C,]2 z2 z2 | [B,,B,]2 [A,^CE]2 [A,CE]2 | %92
 [^C,,^C,]2 [C,E,A,]2 [C,E,A,]2 | [D,,D,]2 F,2 A,2 | (D2 D,) z z2 | [F,,F,]2 F,A, D2 | C2 B,2 A,2 | %97
 (G,6 | G,,) z z2 z2 | [G,,G,]2"^dim" z2 z2 | B,,2 z2 z2 |1 (C,4 G,,2 | C,,2) z2 z2 :|2 (C,4 G,,2 | %104
 C,,2) z2 z2 ||[K:G] [G,,G,]2 [D,G,B,]2 [D,G,B,]2 | B,,2 [D,G,]2 z2 | A,,2 [D,F,C]2 [D,F,C]2 | %108
 [D,,D,]2 [D,F,C]2 [D,F,C]2 | [D,,D,]2 [D,F,C]2 [D,F,C]2 | [D,,D,]2 [D,F,C]2 [D,F,C]2 | %111
 G,,2 ([G,B,]2 E2 | D2 B,2 G,2) |"^cresc" G,,2 [B,D]2 [B,D]2 | z2 [G,B,]2 [G,B,]2 | %115
 z2 [G,C]2 [G,C]2 | z2"^sempre" [G,C]2 [G,C]2 | D,2 [G,B,]2 [G,B,]2 | [D,F,A,]6 | %119
 [G,,G,]2- [G,,G,][F,,F,][G,,G,][B,,B,] | [D,D]2 [A,,A,][F,,F,] [D,,D,]2 | %121
 [C,,C,]2- [C,,C,][B,,,B,,][C,,C,][E,,E,] | [G,,G,]2 D,2 B,,2 | [G,,G,]2 z2 z2 |] %124
V:3
 x6 | x6 | x6 | x6 | x6 | x6 | x6 ||[K:G][M:3/4][K:bass] x6 | x6 | x6 | x6 | x6 | x6 | x6 | x6 | %15
 x6 | x6 | x6 | x6 | x6 | x6 | x6 | x6 | x6 | x6 | x6 | x6 | x6 | x6 | x6 | x6 | x6 | =F,6 | E,6 | %34
 _E,6 | x6 | x6 | x6 | x6 || x6 | x6 | x6 | x6 | x6 | x6 | x6 | x6 | x6 | x6 | x6 | x6 | x6 | x6 | %53
 x6 | x6 | x6 | x6 | x6 | x6 | x6 | x6 | x6 | x6 | x6 | x6 | E,6 | x6 | x6 | x6 | x6 | x6 || x6 | %72
 x6 | x6 | x6 | x6 | x6 | x6 | x6 | x6 | =F,6 | E,6 | _E,6 | D,6 | x6 | x6 | x6 |:[K:C] x6 | x6 | %89
 x6 | x6 | x6 | x6 | x6 | x6 | x6 | x6 | x6 | x6 | x6 | x6 |1 x6 | x6 :|2 x6 | x6 ||[K:G] x6 | x6 | %107
 x6 | x6 | x6 | x6 | x6 | x6 | x6 | =F,6 | E,6 | _E,6 | x6 | x6 | x6 | x6 | x6 | x6 | x6 |] %124
V:4
 x6 | x6 | x6 | x6 | x6 | x6 | x6 ||[K:G][M:3/4][K:treble] x6 | x6 | x6 | x6 | x6 | x6 | x6 | x6 | %15
 x6 | x6 | x6 | x6 | x6 | x6 | x6 | x6 | x6 | x6 | x6 | x6 | x6 | x6 | x6 | x6 | x6 | x6 | x6 | %34
 x6 | x6 | x6 | x6 | x6 || x6 | x6 | x6 | x6 | x6 | x6 | x6 | x6 | x6 | x6 | x6 | x6 | %51
 z2 [_Bd]2 x2 | x6 | x4 G2 | x6 | x6 | x6 | x6 | x6 | x6 | x6 | x6 | x6 | x6 | x6 | x6 | x6 | x6 | %68
 x6 | x6 | x6 || x6 | x6 | x6 | x6 | x6 | x6 | x6 | x6 | x6 | x6 | x6 | x6 | x6 | x6 | x6 | x6 |: %87
[K:C] x6 | x6 | z2 [ce]2 [ce]2 | z2 x4 | x6 | x6 | x6 | x6 | x6 | x6 | x6 | x6 | x6 | x6 |1 x6 | %102
 x6 :|2 x6 | x6 ||[K:G] x6 | x6 | x6 | x6 | x6 | x6 | x6 | x6 | x6 | x6 | x6 | x6 | x6 | x6 | x6 | %120
 x6 | x6 | x6 | x6 |] %124

